img/icons/hardware/memory.svg

<svg viewBox="0 0 16 16" xmlns="http://www.w3.org/2000/svg"><path d="m2 7.5c0-0.828 0.672-1.5 1.5-1.5h9c0.828 0 1.5 0.672 1.5 1.5v1c0 0.828-0.672 1.5-1.5 1.5h-9c-0.828 0-1.5-0.672-1.5-1.5v-1zm1.5-0.5c-0.276 0-0.5 0.224-0.5 0.5v1c0 0.276 0.224 0.5 0.5 0.5h9c0.276 0 0.5-0.224 0.5-0.5v-1c0-0.276-0.224-0.5-0.5-0.5h-9z" clip-rule="evenodd" fill="#000" fill-rule="evenodd"/><path d="m4 2.5c0-0.276-0.224-0.5-0.5-0.5s-0.5 0.224-0.5 0.5v1.5c-1.66 0-3 1.34-3 3v2c0 1.66 1.34 3 3 3v1.5c0 0.276 0.224 0.5 0.5 0.5s0.5-0.224 0.5-0.5v-1.5h2v1.5c0 0.276 0.224 0.5 0.5 0.5s0.5-0.224 0.5-0.5v-1.5h2v1.5c0 0.276 0.224 0.5 0.5 0.5s0.5-0.224 0.5-0.5v-1.5h2v1.5c0 0.276 0.224 0.5 0.5 0.5s0.5-0.224 0.5-0.5v-1.5c1.66 0 3-1.34 3-3v-2c0-1.66-1.34-3-3-3v-1.5c0-0.276-0.224-0.5-0.5-0.5s-0.5 0.224-0.5 0.5v1.5h-2v-1.5c0-0.276-0.224-0.5-0.5-0.5s-0.5 0.224-0.5 0.5v1.5h-2v-1.5c0-0.276-0.224-0.5-0.5-0.5s-0.5 0.224-0.5 0.5v1.5h-2v-1.5zm-1 2.5c-1.1 0-2 0.895-2 2v2c0 1.1 0.895 2 2 2h10c1.1 0 2-0.895 2-2v-2c0-1.1-0.895-2-2-2h-10z" clip-rule="evenodd" fill="#000" fill-rule="evenodd"/></svg>

<svg xmlns="http://www.w3.org/2000/svg" viewBox="0 0 16 16" fill="none">
  <path fill="#000" fill-rule="evenodd"
    d="M2 7.5A1.5 1.5 0 0 1 3.5 6h9A1.5 1.5 0 0 1 14 7.5v1a1.5 1.5 0 0 1-1.5 1.5h-9A1.5 1.5 0 0 1 2 8.5v-1ZM3.5 7a.5.5 0 0 0-.5.5v1a.5.5 0 0 0 .5.5h9a.5.5 0 0 0 .5-.5v-1a.5.5 0 0 0-.5-.5h-9Z"
    clip-rule="evenodd" />
  <path fill="#000" fill-rule="evenodd"
    d="M4 2.5a.5.5 0 1 0-1 0V4a3 3 0 0 0-3 3v2a3 3 0 0 0 3 3v1.5a.5.5 0 0 0 1 0V12h2v1.5a.5.5 0 0 0 1 0V12h2v1.5a.5.5 0 0 0 1 0V12h2v1.5a.5.5 0 0 0 1 0V12a3 3 0 0 0 3-3V7a3 3 0 0 0-3-3V2.5a.5.5 0 0 0-1 0V4h-2V2.5a.5.5 0 1 0-1 0V4H7V2.5a.5.5 0 1 0-1 0V4H4V2.5ZM3 5a2 2 0 0 0-2 2v2a2 2 0 0 0 2 2h10a2 2 0 0 0 2-2V7a2 2 0 0 0-2-2H3Z"
    clip-rule="evenodd" />
</svg>
